X:1

T:Whip Her and Gird Her

M:6/8

L:1/8

R:Jig

S:Geoghegan – Compleat Tutor for the Pastoral or New Bagpipe (c. 1745-46)

Z:AK/Fiddler’s Companion

K:G

G2G GBd | BGB c2 B/A/ | G2G GBd | A=FA {c}B2A | G2G GBd | BGB g2d |

gfe dcB | A=FA {c}B2A || (g/f/e/f/)g def | (g/f/e/f/)g dcB | (g/f/e/f/)g dcB | A=FA {c}B2A |

(g/f/e/f/)g def | (g/f/e/f/)g dcB |cec d=fd | cAF c2A || BGG D/D/D D | BGG GcA |

BGG D/D/D D | A=FA {c}B2A | BGG D/D/D D | (g/f/e/f/)g dcB | cec d=fd | cAF c2A ||

